X:1
T:Banish Misfortune
M:6/8
L:1/8
R:jig
K:Dmix
fed cAG | A2d cAG | F2F DED| F2F GFG |
A3 cAG | AGA cde | fed cAG | Ad^c d2e ::
f2d d^cd | f2g agf | e2c cBc | e2f gfe |
f2g agf | e2f gfe | fed cAG | Ad^c d2e ::
f2g e2f | d2e c2d | ABA GAG | FGE FED |
c3 cAG | AGA cde | fed cAG | Ad^c d2e :|

